Gruvbox-Plus-Dark/actions/symbolic/folder-new-symbolic.svg

<svg width="16" height="16" version="1.1" viewBox="0 0 16 16" xmlns="http://www.w3.org/2000/svg">
  <defs>
    <style type="text/css">.ColorScheme-Text { color:#ebdbb2; } .ColorScheme-Highlight { color:#458588; }</style>
  </defs>
  <path class="ColorScheme-Text" d="m2 1c-0.831 0-1.5 0.669-1.5 1.5v11c0 0.831 0.669 1.5 1.5 1.5h12c0.831 0 1.5-0.669 1.5-1.5v-9c0-0.831-0.669-1.5-1.5-1.5h-6l-2-2zm5 5h2v2h2v2h-2v2h-2v-2h-2v-2h2z" fill="currentColor"/>
</svg>

<svg xmlns="http://www.w3.org/2000/svg" width="16" height="16" version="1.1">
 <path style="fill:#ebdbb2" d="M 1,3 V 14 C 1,14 1,15 2,15 H 14 C 14,15 15,15 15,14 V 5 C 15,4 14,4 14,4 H 9 L 7,2 H 2 C 2,2 1,2 1,3 Z M 7,6 H 9 V 8 H 11 V 10 H 9 V 12 H 7 V 10 H 5 V 8 H 7 Z"/>
</svg>
